!!!OTL: WIE LIEBLICH IST S HIENIEDEN
!!!ARE: Europa, Mitteleuropa, Deutschland
!!!SCT: F0697
!!!YEM: Copyright 1995, estate of Helmut Schaffrath.
**kern
*ICvox
*Ivox
*M4/4
*k[b-e-]
*B-:
{4f
=1
4.dd
8cc
4b-
4a
=2
4a
4g
4f}
{4f
=3
4b-
4b-
4cc
4cc
=4
2dd
4r}
{4b-
=5
4.ee-
8dd
4cc
4b-
=6
4a
4g
4f}
{4cc
=7
4dd
4dd
4cc
4cc
=8
2b-
4r}
==
!!!AGN: Geselligkeits -, Bundes - Lied
!!!ONB: ESAC (Essen Associative Code) Database: FINK
!!!AMT: simple quadruple
!!!AIN: vox
!!!EED: Helmut Schaffrath
!!!EEV: 1.0
*-
